src/actions/22/view-financial-account-savings-closed.svg

<svg version="1.1" viewBox="0 0 22 22" xmlns="http://www.w3.org/2000/svg"><style type="text/css" id="current-color-scheme">.ColorScheme-Text { color: #363636; }.ColorScheme-NegativeText { color: #da4453; }</style>
    <path d="m11 2c-1.0071809 0-1.9159199 0.3855812-2.6191406 1h-3.2597656l1 1h1.4335937c-0.1828841 0.3142485-0.3239661 0.6549888-0.4199219 1.0136719l0.8769532 0.8769531c0.0588156-1.605044 1.3688663-2.890625 2.9882812-2.890625 1.656854 0 3 1.3431458 3 3 0 1.6194149-1.285581 2.9294656-2.890625 2.9882812l1.011719 1.0117188h3.878906v-1h-2.380859c0.839215-0.7332403 1.380859-1.7980419 1.380859-3 0-0.7323174-0.211097-1.4096103-0.554688-2h3.554688v11.878906l1 1v-13.878906h-5.380859c-0.703221-0.6144188-1.61196-1-2.619141-1zm-8 3.1210938v13.878906h13.878906l-3-3h-9.878906v-9.8789062l-1-1zm3 3.8789062v1h1.8789062l-1-1h-0.8789062z" fill="currentColor" class="ColorScheme-Text"/>
    <path d="M 3.7070312,3 3,3.7070312 18.292969,19 19,18.292969 Z" fill="currentColor" class="ColorScheme-NegativeText"/>
</svg>

<svg xmlns="http://www.w3.org/2000/svg" viewBox="0 0 22 22">
    <path fill="currentColor" d="M11 2a3.966 3.966 0 0 0-2.62 1H5.122l1 1h1.434a4.142 4.142 0 0 0-.42 1.014l.877.877A2.994 2.994 0 0 1 11 3a3 3 0 0 1 3 3c0 1.62-1.286 2.93-2.89 2.988L12.12 10H16V9h-2.38A3.972 3.972 0 0 0 15 6a3.96 3.96 0 0 0-.555-2H18v11.879l1 1V3h-5.38A3.966 3.966 0 0 0 11 2zM3 5.121V19h13.879l-3-3H4V6.121l-1-1zM6 9v1h1.879l-1-1H6z" style="color:#050505;opacity:.7"/>
    <path fill="currentColor" d="M3.707 3 3 3.707 18.293 19l.707-.707Z" style="color:#d98c8c"/>
</svg>
